src/lib/packages/icons/src/assets/filled/location-pin-lock.svg

<svg width="24" height="24" viewBox="0 0 24 24" fill="none" xmlns="http://www.w3.org/2000/svg">
<path d="M12.75 9V10.1001H11.25V9C11.25 8.586 11.586 8.25 12 8.25C12.414 8.25 12.75 8.586 12.75 9ZM20.5 11C20.5 15.983 15.871 19.041 12.808 21.064L12.278 21.416C12.194 21.472 12.097 21.5 12.001 21.5C11.905 21.5 11.808 21.472 11.724 21.416L11.194 21.064C8.131 19.041 3.50201 15.983 3.50201 11C3.50201 6.313 7.31501 2.5 12.002 2.5C16.689 2.5 20.5 6.313 20.5 11ZM15 11.45C15 10.78 14.749 10.3609 14.25 10.1899V9C14.25 7.759 13.241 6.75 12 6.75C10.759 6.75 9.75 7.759 9.75 9V10.1899C9.251 10.3609 9 10.78 9 11.45V13.55C9 14.45 9.45001 14.8999 10.35 14.8999H13.65C14.55 14.8999 15 14.45 15 13.55V11.45Z" fill="currentColor"/>
</svg>

<svg xmlns="http://www.w3.org/2000/svg" width="24" height="24" fill="none"><path fill="currentColor" d="M12.75 9v1.1h-1.5V9a.75.75 0 0 1 1.5 0Zm7.75 2c0 4.983-4.629 8.041-7.692 10.064l-.53.352a.5.5 0 0 1-.554 0l-.53-.352C8.131 19.041 3.502 15.983 3.502 11c0-4.687 3.813-8.5 8.5-8.5 4.687 0 8.498 3.813 8.498 8.5Zm-5.5.45c0-.67-.251-1.09-.75-1.26V9A2.252 2.252 0 0 0 12 6.75 2.252 2.252 0 0 0 9.75 9v1.19c-.499.17-.75.59-.75 1.26v2.1c0 .9.45 1.35 1.35 1.35h3.3c.9 0 1.35-.45 1.35-1.35v-2.1Z"/></svg>
